X:1
T:Title
%%score 1 { 2 | 3 }
L:1/8
Q:1/4=98
M:3/4
K:F
V:1 treble nm="Grand Piano, Soprano"
V:2 treble nm="Choir Pad, The Cry of the Weary"
V:3 bass 
V:1
 F2 [FA]3 [FB] | [FA]F [FA]4 | [FA]2 [Fc]3 [Fd] | [Fc][FA] [Fc]4 | [FA]2 [EG]3 [EG] | %5
w: By~William~Howard~Doane,~1884 * *|||||
 [FA][GB] [FA]4 | [Fc]2 [EG]3 [CE] | [DF][=B,D] C4 | [Ec]2 [Fc]3 [G^c] | [^Fd][FA] [Ac]2 [GB]2- | %10
w: |||||
 [GB]2 [GB]3 [G=B] | [Gc][EG] [GB]2 [FA]2 | [FA]2 [GA]3 [GA] | [GB][GA] [FA]2 [DF]2 | %14
w: ||||
 [D^F]2 [DG][DA] [DB]2 | [CE]2 [CF]4- | [CF]4 z2 |] %17
w: |||
V:2
 A,2 C3 D | CA, C4 | C2[K:bass] A,3 B, | A,C A,4 | C2 C3 C | CC C4 | A,2 C3 G, | G,F, E,4 | %8
 G,B, A,3 A, | A,[K:treble]D D2 D2- | D2 D3 D | CC C2 C2 | C2 ^C3 C | ^CC D2[K:bass] A,2 | %14
 A,2 G,^F, G,2 | G,B, A,4- | A,4 z2 |] %17
V:3
 F,2 F,3 F, | F,F, F,4 | F,2 F,3 F, | F,F, F,4 | F,2 C,3 C, | C,C, F,4 | F,2 G,3 G,, | G,,G,, C,4 | %8
 C,2 F,3 _E, | D,D, G,2 G,2- | G,2 G,3 F, | E,C, F,2 A,2 | F,2 E,3 E, | A,,A,, D,2 D,2 | %14
 C,2 B,,A,, G,,2 | C,2 F,4- | F,4 z2 |] %17

